view/frontend/web/svg/flags/dj.svg

<svg width="24" height="24" viewbox="0 0 20 15" viewBox="0 0 20 15" fill="none" xmlns="http://www.w3.org/2000/svg">
<g clip-path="url(#clip0_270_60920)">
<rect width="20" height="15" fill="white"/>
<path fill-rule="evenodd" clip-rule="evenodd" d="M0 0V15H20V0H0Z" fill="#73BE4A"/>
<mask id="mask0_270_60920" style="mask-type:luminance" maskUnits="userSpaceOnUse" x="0" y="0" width="20" height="15">
<path fill-rule="evenodd" clip-rule="evenodd" d="M0 0V15H20V0H0Z" fill="white"/>
</mask>
<g mask="url(#mask0_270_60920)">
<path fill-rule="evenodd" clip-rule="evenodd" d="M0 -1.25V7.5H20V-1.25H0Z" fill="#6699FF"/>
</g>
<path fill-rule="evenodd" clip-rule="evenodd" d="M0 0V15L11.25 7.5L0 0Z" fill="white"/>
<mask id="mask1_270_60920" style="mask-type:luminance" maskUnits="userSpaceOnUse" x="0" y="0" width="12" height="15">
<path fill-rule="evenodd" clip-rule="evenodd" d="M0 0V15L11.25 7.5L0 0Z" fill="white"/>
</mask>
<g mask="url(#mask1_270_60920)">
<path fill-rule="evenodd" clip-rule="evenodd" d="M4.37612 8.79417L3.20695 9.5L3.47363 8.12265L2.5 7.09184L3.81835 7.0361L4.37612 5.75L4.93389 7.0361H6.25L5.27861 8.12265L5.57106 9.5L4.37612 8.79417Z" fill="#E31D1C"/>
</g>
</g>
<defs>
<clipPath id="clip0_270_60920">
<rect width="20" height="15" fill="white"/>
</clipPath>
</defs>
</svg>

<svg width="24" height="24" viewbox="0 0 20 15" fill="none" xmlns="http://www.w3.org/2000/svg">
  <mask id="a" maskUnits="userSpaceOnUse" x="0" y="0" width="20" height="15">
    <path fill="#fff" d="M0 0h20v15H0z"/>
  </mask>
  <g mask="url(#a)">
    <path fill-rule="evenodd" clip-rule="evenodd" d="M0 0v15h20V0H0z" fill="#73BE4A"/>
    <mask id="b" maskUnits="userSpaceOnUse" x="0" y="0" width="20" height="15">
      <path fill-rule="evenodd" clip-rule="evenodd" d="M0 0v15h20V0H0z" fill="#fff"/>
    </mask>
    <g mask="url(#b)">
      <path fill-rule="evenodd" clip-rule="evenodd" d="M0-1.25V7.5h20v-8.75H0z" fill="#69F"/>
    </g>
    <path fill-rule="evenodd" clip-rule="evenodd" d="M0 0v15l11.25-7.5L0 0z" fill="#fff"/>
    <mask id="c" maskUnits="userSpaceOnUse" x="0" y="0" width="12" height="15">
      <path fill-rule="evenodd" clip-rule="evenodd" d="M0 0v15l11.25-7.5L0 0z" fill="#fff"/>
    </mask>
    <g mask="url(#c)">
      <path fill-rule="evenodd" clip-rule="evenodd" d="M4.376 8.794l-1.17.706.268-1.377L2.5 7.092l1.318-.056.558-1.286.558 1.286H6.25l-.971 1.087L5.57 9.5l-1.195-.706z" fill="#E31D1C"/>
    </g>
  </g>
</svg>
